X:1
T:Title
%%score ( 1 2 ) { 3 | 4 }
L:1/8
M:3/4
K:Eb
V:1 treble nm="Grand Piano, Piano"
V:2 treble 
V:3 bass nm="Grand Piano, Piano"
V:4 bass 
V:1
 z2 z2[Q:1/4=100] [EG][DF] | E2 E2 [EG][EB] | [DF]2 [DF]2 [EG][EB] |[M:2/4] [Ec]2 [EB]2 | %4
w: 1.~Come,~ thou~|Fount~ of~ ev ery~|bles sing,~ tune~ my~|heart~ to~|
[M:1/4] [EG][DF] |[M:3/4] E4 [EG][DF] | E2 E2 [EG][EB] |[M:2/4] [DF]2 [DF]2 |[M:1/4] [EG][EB] | %9
w: sing~ thy~|grace;~ streams~ of~|mer cy,~ ne ver~|ceas ing,~|call~ for~|
[M:3/4] [Ec]2 [EB]2 [EG][DF] | z2 z2 z .c | [Ge]2 [Bd]2 [Ac][GB] | .c2 z2 z .c | %13
w: songs~ of~ lou dest~|me~|some~ me lo dious~|son by~|
 [Ge]2 [Bd]2 [Ac][FB] | [Ge]4 [EG][DF] |[M:2/4] E2 E2 |[M:1/4] [EG][EB] | %17
w: fla ming~ tongues~ a|bove.~ Praise~ the~|mount!~ I'm~|fixed~ up|
[M:3/4] [DF]2 [DF]2 [EG][EB] | [Ec]2 [EB]2 [EG][DF] |[M:2/4] E4 |] %20
w: on~ it,~ mount~ of~|thy~ re deem ing~|love.~|
V:2
 x6 | x6 | x6 |[M:2/4] x4 |[M:1/4] x2 |[M:3/4] x6 | x6 |[M:2/4] x4 |[M:1/4] x2 |[M:3/4] x6 | %10
 E4 [EB]A/-[Ad]/ | x6 | E-[EB] [EG]2 [EB]A/-[Ad]/ | x6 | x6 |[M:2/4] x4 |[M:1/4] x2 |[M:3/4] x6 | %18
 x6 |[M:2/4] x4 |] %20
V:3
 z2 z2 B,A, | G,2 G,2 B,B, | B,2 B,2 B,B, |[M:2/4] A,2 G,2 |[M:1/4] B,A, |[M:3/4] G,4 B,A, | %6
 G,2 G,2 B,B, |[M:2/4] B,2 B,2 |[M:1/4] B,B, |[M:3/4] A,2 G,2 B,A, | G,4 B,A, | B,2 B,2 EE | %12
 A,G, B,2 B,A, | B,2 B,2 ED | B,4 B,A, |[M:2/4] G,2 G,2 |[M:1/4] B,B, |[M:3/4] B,2 B,2 B,B, | %18
 A,2 G,2 B,A, |[M:2/4] G,4 |] %20
V:4
 z2 z2 E,B,, | E,2 E,2 E,G,, | B,,2 B,,2 E,G, |[M:2/4] z2 E,2 |[M:1/4] B,,B,, |[M:3/4] E,4 E,B,, | %6
 E,2 E,2 E,G,, |[M:2/4] B,,2 B,,2 |[M:1/4] E,G, |[M:3/4] z2 E,2 B,,B,, | E,4 G,F, | E,2 G,2 A,E, | %12
 E,2 E,2 G,F, | E,2 G,2 A,B, | E,4 E,B,, |[M:2/4] E,2 E,2 |[M:1/4] E,G,, |[M:3/4] B,,2 B,,2 E,G, | %18
 z2 E,2 B,,B,, |[M:2/4] E,4 |] %20

